svgs/microsoft_edge_canary.svg

<svg width="192" height="192" viewBox="0 0 192 192" fill="none" xmlns="http://www.w3.org/2000/svg">
<path fill-rule="evenodd" clip-rule="evenodd" d="M39.8242 39.043C54.7945 24.2763 74.974 15.9979 95.9981 16C126.527 16 155.266 30.6511 168.799 56.9668L168.814 56.9961L168.83 57.0273C168.944 57.2547 169.07 57.5031 169.207 57.7723C171.365 62.0233 176.16 71.4656 175.994 85.1113V85.127L175.994 85.1415L175.994 85.154L175.994 85.1657C175.994 85.1709 175.994 85.1762 175.994 85.1816H175.992C175.977 89.9827 175.13 94.7261 173.506 99.2061C170.421 96.5636 166.793 94.5365 162.812 93.3152C163.589 90.6548 163.99 87.887 163.994 85.0918V85.0547L163.996 85.0195C164.139 74.3358 160.486 67.1171 158.466 63.1246L158.462 63.1184C158.345 62.8857 158.233 62.6639 158.127 62.4531C158.125 62.4497 158.123 62.4465 158.121 62.4433C158.119 62.4401 158.117 62.437 158.115 62.4336C147.017 40.8721 122.925 28 95.9981 28C78.1294 27.9982 60.9771 35.0339 48.252 47.5859C44.8961 50.8962 41.9334 54.5324 39.3692 58.4102C47.8109 53.5892 57.8334 50.8184 68.2481 50.8184C70.5036 50.8184 83.2045 50.9823 95.1973 57.2305L95.1992 57.2285C95.2086 57.2332 95.2177 57.2382 95.2268 57.2433L95.2438 57.2526L95.2539 57.2578L95.2653 57.2636L95.2847 57.2732L95.29 57.2758L95.3055 57.2835L95.3164 57.2891L95.3145 57.291C103.835 61.5564 110.896 68.2619 115.592 76.5566H115.594C115.595 76.5592 115.596 76.5618 115.598 76.5645L115.6 76.5689L115.602 76.5723C115.604 76.5766 115.607 76.5807 115.609 76.5849C115.612 76.5891 115.615 76.5933 115.617 76.5977L115.615 76.5996C118.633 81.8664 119.819 87.7654 120.263 92.0494C116.036 92.2907 112.042 93.4075 108.461 95.2214C108.183 92.7607 107.298 90.2442 106.105 88.6348L106.102 88.6309C104.927 87.0595 103.407 85.7801 101.656 84.8945C99.9046 84.0081 97.9724 83.5386 96.0098 83.5234H95.9903H95.9707C93.4971 83.4886 91.6187 84.3218 89.8262 85.1602C87.9627 86.1992 86.3984 87.7019 85.2989 89.5332C84.1845 91.389 83.5858 93.509 83.5586 95.6738C83.5714 103.659 86.826 111.208 92.3546 117.373C92.1211 118.881 92 120.427 92 122V133.043C81.5037 125.536 73.9804 114.793 72.0567 102.078C70.3412 105.192 69.0292 108.523 68.1758 111.996C66.7595 117.76 66.6202 123.765 67.7696 129.588C68.9189 135.411 71.3285 140.911 74.8281 145.703L74.8496 145.732L74.8692 145.76C77.8027 149.876 81.508 153.373 85.7539 156.105L86.3477 156.477C88.311 157.706 90.3777 158.748 92.5204 159.593C93.7152 165.929 96.9025 171.562 101.406 175.815C88.8878 176.666 76.2532 174.558 64.5293 169.533C46.5101 161.811 31.9534 147.737 23.6211 129.986L23.6153 129.975L23.6094 129.963C18.528 119.012 15.9496 107.067 16.0586 94.9941V94.9805V94.9668V94.9648C16.354 73.9527 24.8417 53.8216 39.8242 39.043ZM68.2481 62.8184C70.0318 62.8184 80.3798 63.0048 89.7422 67.916L89.7989 67.9453L89.8574 67.9746C91.8817 68.981 93.7823 70.1897 95.5664 71.543C90.4292 71.6078 86.5493 73.4348 84.6903 74.3102L84.4903 74.4043L84.4375 74.4297L84.3848 74.4551C84.3455 74.4745 84.3069 74.4951 84.2683 74.5158L84.268 74.5159L84.2677 74.5161C84.232 74.5351 84.1964 74.5542 84.1602 74.5723C84.156 74.5745 84.1526 74.5778 84.1485 74.5801C77.3553 77.9711 71.3706 82.7859 66.6133 88.707C61.8001 94.6976 58.3555 101.67 56.5215 109.133C54.6876 116.597 54.5099 124.371 55.9981 131.912C57.4818 139.43 60.5875 146.532 65.0977 152.725C65.1112 152.743 65.1232 152.763 65.1367 152.781L65.1387 152.779C66.6998 154.963 68.4279 157.014 70.2989 158.922C70.1577 158.864 70.0158 158.809 69.874 158.753C69.6679 158.672 69.4619 158.591 69.2578 158.504C53.9503 151.943 41.5811 139.991 34.4961 124.912C30.1686 115.586 27.9682 105.414 28.0567 95.1328V95.1309V95.1289V95.125V95.123C28.2929 78.2498 45.5158 62.8184 68.2481 62.8184Z" fill="black"/>
<path d="M106 122C106 113.163 113.163 106 122 106H154C162.837 106 170 113.163 170 122V154C170 162.837 162.837 170 154 170H122C113.163 170 106 162.837 106 154V122Z" stroke="black" stroke-width="12"/>
<path d="M149.607 148.607C147.509 150.704 144.836 152.133 141.926 152.712C139.017 153.291 136.001 152.994 133.26 151.858C130.519 150.723 128.176 148.8 126.528 146.334C124.88 143.867 124 140.967 124 138C124 135.033 124.88 132.133 126.528 129.666C128.176 127.2 130.519 125.277 133.26 124.142C136.001 123.006 139.017 122.709 141.926 123.288C144.836 123.867 147.509 125.296 149.607 127.393" stroke="black" stroke-width="8" stroke-linecap="round"/>
</svg>

<svg xmlns="http://www.w3.org/2000/svg" width="192" height="192" fill="none" xmlns:v="https://vecta.io/nano"><path fill-rule="evenodd" d="M39.824 39.043A79.98 79.98 0 0 1 95.998 16c30.529 0 59.268 14.651 72.801 40.967l.015.029.016.031.377.745c2.158 4.251 6.953 13.693 6.787 27.339v.016.014.013.012l-.002.016a41.53 41.53 0 0 1-2.486 14.025 29.94 29.94 0 0 0-10.694-5.891 29.48 29.48 0 0 0 1.182-8.223v-.037l.002-.035c.143-10.684-3.51-17.902-5.53-21.895l-.004-.006-.335-.665-.012-.02C147.017 40.872 122.925 28 95.998 28a67.98 67.98 0 0 0-47.746 19.586 67.42 67.42 0 0 0-8.883 10.824c8.442-4.821 18.464-7.592 28.879-7.592 2.256 0 14.956.164 26.949 6.412l.002-.002a.66.66 0 0 1 .028.015l.017.009.01.005.011.006.019.01.005.003.015.008.011.006-.002.002c8.52 4.265 15.582 10.971 20.278 19.266h.002l.006.012.002.003c.01.017.013.021.015.025l-.002.002c3.018 5.267 4.204 11.166 4.648 15.45a29.83 29.83 0 0 0-11.802 3.172c-.278-2.461-1.163-4.977-2.356-6.587l-.003-.004a12.72 12.72 0 0 0-10.092-5.108h-.019-.02c-2.474-.035-4.352.798-6.144 1.637-1.864 1.039-3.428 2.542-4.527 4.373-1.114 1.856-1.713 3.976-1.74 6.141.013 7.985 3.267 15.534 8.796 21.699A30.23 30.23 0 0 0 92 122v11.043c-10.496-7.507-18.02-18.25-19.943-30.965a40.67 40.67 0 0 0-3.881 9.918 40.7 40.7 0 0 0-.406 17.592 40.68 40.68 0 0 0 7.059 16.115l.021.029.02.028c2.933 4.116 6.639 7.613 10.885 10.345l.594.372a37.7 37.7 0 0 0 6.173 3.116 29.95 29.95 0 0 0 8.886 16.222c-12.518.851-25.153-1.257-36.877-6.282a80.01 80.01 0 0 1-40.908-39.547l-.006-.011-.006-.012c-5.081-10.951-7.66-22.896-7.551-34.969v-.014-.014-.002c.295-21.012 8.783-41.143 23.766-55.922zm28.424 23.775c1.784 0 12.132.186 21.494 5.098l.057.029.058.029c2.024 1.006 3.925 2.215 5.709 3.568-5.137.065-9.017 1.892-10.876 2.767l-.2.094-.053.025-.053.025c-.039.019-.078.04-.117.061h0 0l-.108.056a52.7 52.7 0 0 0-17.547 14.135 52.69 52.69 0 0 0-10.092 20.426 52.7 52.7 0 0 0-.523 22.779 52.68 52.68 0 0 0 9.1 20.813c.013.018.025.038.039.056l.002-.002a51.8 51.8 0 0 0 5.16 6.143l-.425-.169-.616-.249c-15.308-6.561-27.677-18.513-34.762-33.592a69.33 69.33 0 0 1-6.439-29.779v-.002-.002-.004-.002c.236-16.873 17.459-32.305 40.191-32.305z" fill="#000"/><g stroke="#000"><path d="M106 122c0-8.837 7.163-16 16-16h32c8.837 0 16 7.163 16 16v32c0 8.837-7.163 16-16 16h-32c-8.837 0-16-7.163-16-16v-32z" stroke-width="12"/><path d="M149.607 148.607a15.01 15.01 0 0 1-7.681 4.105 14.99 14.99 0 0 1-8.666-.854 15 15 0 0 1-6.732-5.524C124.88 143.867 124 140.967 124 138s.88-5.867 2.528-8.334a15 15 0 0 1 6.732-5.524 14.99 14.99 0 0 1 8.666-.854 15.01 15.01 0 0 1 7.681 4.105" stroke-width="8" stroke-linecap="round"/></g></svg>
